gy/si-glyph-trolley-2.svg

<svg viewBox="0 0 17 16" xmlns="http://www.w3.org/2000/svg" class="si-glyph si-glyph-trolley-2" height="1em" width="1em">
  <g transform="translate(1 1)" fill="#434343" fill-rule="evenodd">
    <circle cx="4.437" cy="12.437" r="1.437" class="si-glyph-fill"/>
    <ellipse cx="10.452" cy="12.485" rx="1.452" ry="1.485" class="si-glyph-fill"/>
    <path d="M14.684.337c-.717 0-1.297.599-1.297 1.338l-.172 1.343H.557c-.318 0-.541.287-.541.654 0 .139.01.27.072.375l1.211 5.454c.04.172.168.299.331.369a.508.508 0 0 0 .265.083H12.36l-.174 1.093H2.564c-.319 0-.501.056-.501.423s.182.474.501.474l10.79.001 1.16-8.948c.057.007.111.018.17.018.715 0 1.295-.6 1.295-1.338 0-.74-.581-1.339-1.295-1.339Zm-1.938 5.772H11V3.968h2.078l-.332 2.141ZM2.17 8.994l-.309-2.035h2.182v2.035H2.17Zm5.799-5.025h2.047v2.047H7.969V3.969Zm-.938 2.078H4.953V3.953h2.078v2.094Zm-3-.01H1.834L1.52 3.971h2.512v2.066h-.001Zm.938.932h2.062v2.078H4.969V6.969Zm3-.016h2.062v2.094H7.969V6.953Zm3 2.078V6.984h1.906l-.289 2.047h-1.617Z" class="si-glyph-fill"/>
  </g>
</svg>

<svg viewBox="0 0 17 16" version="1.1" xmlns="http://www.w3.org/2000/svg" class="si-glyph si-glyph-trolley-2" height="1em" width="1em">
  <g stroke="none" stroke-width="1" fill="none" fill-rule="evenodd">
    <g transform="translate(1.000000, 1.000000)" fill="#434343">
      <circle cx="4.437" cy="12.437" r="1.437" class="si-glyph-fill"/>
      <ellipse cx="10.452" cy="12.485" rx="1.452" ry="1.485" class="si-glyph-fill"/>
      <path d="M14.684,0.337 C13.967,0.337 13.387,0.936 13.387,1.675 L13.215,3.018 L0.557,3.018 C0.239,3.018 0.016,3.305 0.016,3.672 C0.016,3.811 0.026,3.942 0.088,4.047 L1.299,9.501 C1.339,9.673 1.467,9.8 1.63,9.87 C1.711,9.919 1.798,9.953 1.895,9.953 L12.36,9.953 L12.186,11.046 L2.564,11.046 C2.245,11.046 2.063,11.102 2.063,11.469 C2.063,11.836 2.245,11.943 2.564,11.943 L13.354,11.944 L14.514,2.996 C14.571,3.003 14.625,3.014 14.684,3.014 C15.399,3.014 15.979,2.414 15.979,1.676 C15.979,0.936 15.398,0.337 14.684,0.337 L14.684,0.337 Z M12.746,6.109 L11,6.109 L11,3.968 L13.078,3.968 L12.746,6.109 L12.746,6.109 Z M2.17,8.994 L1.861,6.959 L4.043,6.959 L4.043,8.994 L2.17,8.994 L2.17,8.994 Z M7.969,3.969 L10.016,3.969 L10.016,6.016 L7.969,6.016 L7.969,3.969 L7.969,3.969 Z M7.031,6.047 L4.953,6.047 L4.953,3.953 L7.031,3.953 L7.031,6.047 L7.031,6.047 Z M4.031,6.037 L1.834,6.037 L1.52,3.971 L4.032,3.971 L4.032,6.037 L4.031,6.037 Z M4.969,6.969 L7.031,6.969 L7.031,9.047 L4.969,9.047 L4.969,6.969 L4.969,6.969 Z M7.969,6.953 L10.031,6.953 L10.031,9.047 L7.969,9.047 L7.969,6.953 L7.969,6.953 Z M10.969,9.031 L10.969,6.984 L12.875,6.984 L12.586,9.031 L10.969,9.031 L10.969,9.031 Z" class="si-glyph-fill"/>
    </g>
  </g>
</svg>
